_includes/icons/color-waiter.svg

<svg fill="#666" height="50" viewBox="0 0 48 48" width="50" xmlns="http://www.w3.org/2000/svg"><path d="m14.925781 31.996094 3.035157-12.492188s-1.039063-.507812-3.035157-.507812c-1.992187 0-2.976562.507812-2.976562.507812z" fill="#e3f2fd"/><path d="m16.9375 16.246094h-4.019531v3l2.007812.253906 2.011719-.253906z" fill="#ff9800"/><path d="m34 12c-3.867187 0-7 3.132813-7 7h14c0-3.867187-3.132812-7-7-7z" fill="#9fa8da"/><path d="m26 18v1c0 .554688.445313 1 1 1h14c.554688 0 1-.445312 1-1v-1z" fill="#5c6bc0"/><path d="m35 11c0 .550781-.449219 1-1 1s-1-.449219-1-1 .449219-1 1-1 1 .449219 1 1z" fill="#5c6bc0"/><g fill="#ffb74d"><path d="m36 20-2 2h-3l-3 5v-5c0-2 2-2 2-2z"/><path d="m10 42-3-2v-4h3z"/><path d="m14.925781 18c-2.769531 0-5.019531-2.242187-5.019531-5 0-2.757812 2.25-5 5.019531-5 2.769532 0 5.023438 2.242188 5.023438 5 0 2.757813-2.253906 5-5.023438 5"/></g><path d="m14.707031 6c-2.449218.21875-4.804687 1.929688-4.804687 5.574219v1.425781l1.007812 1v-3l6.335938-2.199219 1.699219 2.199219v3l1.003906-1v-1.199219c0-2.417968-.136719-4.207031-3.015625-4.800781l-.488281-1z" fill="#424242"/><g fill="#455a64"><path d="m28 21-3 5s-3.359375-4.375-4.003906-4.855469c-.699219-.527343-1.75-1.179687-3.039063-1.625l-3.03125 12.476563-2.972656-12.476563c-3.144531 1.140625-4.953125 4.054688-4.953125 7.480469v10l3 2v3h11v-14.90625l3 2.90625h3l4-7z"/><path d="m12.976563 17.996094 1.949218 1.503906-1.949218 1.503906s-.5625-.3125-.5625-1.460937c0-1.148438.5625-1.546875.5625-1.546875z"/><path d="m16.9375 21.003906-2.011719-1.503906 2.011719-1.503906s.5625.3125.5625 1.460937c0 1.148438-.5625 1.546875-.5625 1.546875z"/></g></svg>

<svg xmlns="http://www.w3.org/2000/svg" viewBox="0 0 48 48" width="50" height="50" fill="#666"><path d="M 14.925781 31.996094 L 17.960938 19.503906 C 17.960938 19.503906 16.921875 18.996094 14.925781 18.996094 C 12.933594 18.996094 11.949219 19.503906 11.949219 19.503906 Z" fill="#e3f2fd"/><path d="M 16.9375 16.246094 L 12.917969 16.246094 L 12.917969 19.246094 L 14.925781 19.5 L 16.9375 19.246094 Z" fill="#ff9800"/><path d="M 34 12 C 30.132813 12 27 15.132813 27 19 L 41 19 C 41 15.132813 37.867188 12 34 12 Z" fill="#9fa8da"/><path d="M 26 18 L 26 19 C 26 19.554688 26.445313 20 27 20 L 41 20 C 41.554688 20 42 19.554688 42 19 L 42 18 Z" fill="#5c6bc0"/><path d="M 35 11 C 35 11.550781 34.550781 12 34 12 C 33.449219 12 33 11.550781 33 11 C 33 10.449219 33.449219 10 34 10 C 34.550781 10 35 10.449219 35 11 Z" fill="#5c6bc0"/><path d="M 36 20 L 34 22 L 31 22 L 28 27 L 28 22 C 28 20 30 20 30 20 Z" fill="#ffb74d"/><path d="M 10 42 L 7 40 L 7 36 L 10 36 Z" fill="#ffb74d"/><path d="M 14.925781 18 C 12.15625 18 9.90625 15.757813 9.90625 13 C 9.90625 10.242188 12.15625 8 14.925781 8 C 17.695313 8 19.949219 10.242188 19.949219 13 C 19.949219 15.757813 17.695313 18 14.925781 18" fill="#ffb74d"/><path d="M 14.707031 6 C 12.257813 6.21875 9.902344 7.929688 9.902344 11.574219 L 9.902344 13 L 10.910156 14 L 10.910156 11 L 17.246094 8.800781 L 18.945313 11 L 18.945313 14 L 19.949219 13 L 19.949219 11.800781 C 19.949219 9.382813 19.8125 7.59375 16.933594 7 L 16.445313 6 Z" fill="#424242"/><path d="M 28 21 L 25 26 C 25 26 21.640625 21.625 20.996094 21.144531 C 20.296875 20.617188 19.246094 19.964844 17.957031 19.519531 L 14.925781 31.996094 L 11.953125 19.519531 C 8.808594 20.660156 7 23.574219 7 27 L 7 37 L 10 39 L 10 42 L 21 42 L 21 27.09375 L 24 30 L 27 30 L 31 23 Z" fill="#455a64"/><path d="M 12.976563 17.996094 L 14.925781 19.5 L 12.976563 21.003906 C 12.976563 21.003906 12.414063 20.691406 12.414063 19.542969 C 12.414063 18.394531 12.976563 17.996094 12.976563 17.996094 Z" fill="#455a64"/><path d="M 16.9375 21.003906 L 14.925781 19.5 L 16.9375 17.996094 C 16.9375 17.996094 17.5 18.308594 17.5 19.457031 C 17.5 20.605469 16.9375 21.003906 16.9375 21.003906 Z" fill="#455a64"/></svg>
